X:14 
T: Tüzérnek soroztak
O: Onest (Bákó), 1929
Q: "Giusto" 1/4=120
M:2/4
L:1/4
K:F
F/E/D | F/E/D | 
F/G/A | A/G/F | 
A/A/d | c/B/A | 
G/G/F/E/ | D D |

